icons/close.svg

<?xml version="1.0" encoding="UTF-8" standalone="no"?>
<!-- Generator: Adobe Illustrator 16.0.5, SVG Export Plug-In . SVG Version: 6.00 Build 0)  -->

<svg
   xmlns:dc="http://purl.org/dc/elements/1.1/"
   xmlns:cc="http://creativecommons.org/ns#"
   xmlns:rdf="http://www.w3.org/1999/02/22-rdf-syntax-ns#"
   xmlns:svg="http://www.w3.org/2000/svg"
   xmlns="http://www.w3.org/2000/svg"
   xmlns:sodipodi="http://sodipodi.sourceforge.net/DTD/sodipodi-0.dtd"
   xmlns:inkscape="http://www.inkscape.org/namespaces/inkscape"
   version="1.1"
   id="Ebene_1"
   x="0px"
   y="0px"
   width="2048"
   height="2048"
   viewBox="0 0 2048 2048"
   enable-background="new 0 0 40 40.25"
   xml:space="preserve"
   inkscape:version="0.48.5 r10040"
   sodipodi:docname="close.svg"><metadata
   id="metadata29"><rdf:RDF><cc:Work
       rdf:about=""><dc:format>image/svg+xml</dc:format><dc:type
         rdf:resource="http://purl.org/dc/dcmitype/StillImage" /><dc:title /></cc:Work></rdf:RDF></metadata><defs
   id="defs27" /><sodipodi:namedview
   pagecolor="#ffffff"
   bordercolor="#666666"
   borderopacity="1"
   objecttolerance="10"
   gridtolerance="10"
   guidetolerance="10"
   inkscape:pageopacity="0"
   inkscape:pageshadow="2"
   inkscape:window-width="1920"
   inkscape:window-height="1018"
   id="namedview25"
   showgrid="true"
   inkscape:zoom="0.091614904"
   inkscape:cx="1969.96"
   inkscape:cy="1524.546"
   inkscape:window-x="-8"
   inkscape:window-y="-8"
   inkscape:window-maximized="1"
   inkscape:current-layer="Ebene_1"><inkscape:grid
     empspacing="5"
     visible="true"
     enabled="true"
     snapvisiblegridlinesonly="true"
     spacingx="128px"
     spacingy="128px"
     type="xygrid"
     id="grid2985" /></sodipodi:namedview>
  <title
   id="title6">Close</title>
<path
   display="none"
   d="m 19.837,2036.229 h -3.576 l 1.992,-11.93 h 3.576 l -1.992,11.93 z m 2.138,-14.544 h -3.577 l 0.576,-3.384 h 3.576 l -0.575,3.384 z"
   id="path3"
   inkscape:connector-curvature="0"
   style="fill:#ffffff;display:none" />

<path
   d="M 1024 0 C 458.4625 0 0 458.4625 0 1024 C 0 1589.5375 458.4625 2048 1024 2048 C 1589.5375 2048 2048 1589.5375 2048 1024 C 2048 458.4625 1589.5375 0 1024 0 z M 668.6875 563.21875 L 1030.5938 924.75 L 1392.1562 563.21875 L 1459.9062 630.96875 L 1098.3438 992.53125 L 1459.9062 1354.0938 L 1392.1562 1421.8438 L 1030.5312 1060.3125 L 668.625 1421.8438 L 600.875 1354.0938 L 962.65625 992.53125 L 600.875 630.96875 L 668.6875 563.21875 z "
   id="path5" /></svg>

<svg xmlns="http://www.w3.org/2000/svg" width="2048" height="2048" viewBox="0 0 2048 2048">
    <title>Close</title>
    <path d="M1024 0C458.462 0 0 458.462 0 1024c0 565.537 458.462 1024 1024 1024 565.537 0 1024-458.463 1024-1024C2048 458.462 1589.537 0 1024 0zM668.687 563.22l361.907 361.53 361.562-361.53 67.75 67.75-361.562 361.56 361.562 361.564-67.75 67.75-361.625-361.532-361.905 361.532-67.75-67.75 361.78-361.563-361.78-361.56 67.813-67.75z"/>
</svg>
